packages/design-system/src/icons/fire.svg

<svg width="16" height="16" viewBox="0 0 16 16" fill="none" xmlns="http://www.w3.org/2000/svg">
<path fill-rule="evenodd" clip-rule="evenodd" d="M8.32014 1.16025L8.00014 1.54444C8.32014 1.16025 8.32011 1.16023 8.32014 1.16025L8.32238 1.16212L8.32744 1.16636L8.3458 1.18186C8.36162 1.19528 8.38452 1.21481 8.41388 1.24019C8.47261 1.29092 8.55726 1.36504 8.66297 1.46027C8.8743 1.65064 9.17036 1.92584 9.5122 2.26766C10.4438 3.19918 10.4437 4.7098 9.51218 5.6413C9.27105 5.88243 9.27105 6.27341 9.51218 6.51455C9.75331 6.75568 10.1443 6.75568 10.3854 6.51455L11.4163 5.4837C11.5245 5.3755 11.6763 5.3228 11.8282 5.34067C11.9802 5.35855 12.1156 5.44502 12.1958 5.57538C12.8798 6.68788 13.4173 7.9525 13.4173 9.20515C13.4173 11.0936 12.8314 12.5458 11.826 13.5253C10.8242 14.5011 9.45987 14.9552 8.00014 14.9552C6.54041 14.9552 5.17606 14.5011 4.1743 13.5253C3.16889 12.5458 2.58301 11.0936 2.58301 9.20515C2.58301 9.0289 2.59386 8.85313 2.61376 8.67855C2.63551 8.48784 2.7645 8.32642 2.94572 8.26315C3.12693 8.19987 3.32837 8.24592 3.4641 8.38164L4.33584 9.25339C4.58439 9.50193 4.98732 9.50193 5.23587 9.25338C5.48442 9.00484 5.48442 8.60191 5.23588 8.35336C5.23588 8.35335 5.23588 8.35336 5.23588 8.35336L4.57326 7.69076C3.80409 6.92156 3.68142 5.70063 4.31708 4.80294C4.80131 4.11911 5.49885 3.86231 6.05734 3.69394C6.15913 3.66326 6.25246 3.63654 6.34007 3.61146C6.51128 3.56245 6.66064 3.51969 6.80861 3.46578C7.02162 3.38816 7.15871 3.31072 7.24884 3.22261C7.30756 3.16521 7.37139 3.05772 7.42301 2.88394C7.47329 2.71468 7.50167 2.51747 7.51472 2.31979C7.52763 2.12421 7.5247 1.94186 7.51832 1.80767C7.51515 1.74104 7.51119 1.68743 7.50813 1.65138C7.50659 1.63339 7.50529 1.61985 7.50443 1.61134L7.50351 1.60245L7.50342 1.60158C7.50341 1.60152 7.50342 1.60165 7.50342 1.60158M7.50342 1.60158C7.48014 1.39861 7.58269 1.20169 7.76244 1.10455C7.94225 1.00739 8.1631 1.02944 8.32014 1.16025M8.48588 2.66179C8.46445 2.82749 8.43157 3.00049 8.38162 3.16866C8.30431 3.42897 8.175 3.71567 7.94787 3.9377C7.70981 4.17042 7.419 4.30769 7.15095 4.40535C6.96955 4.47145 6.76332 4.53061 6.57329 4.58513C6.49367 4.60798 6.4169 4.63 6.34598 4.65138C5.82266 4.80915 5.41179 4.9874 5.13319 5.38083C4.78613 5.87096 4.84711 6.55037 5.28035 6.98364C5.28035 6.98364 5.28034 6.98363 5.28035 6.98364L5.94297 7.64623C6.58205 8.28531 6.58206 9.32142 5.94298 9.96049C5.30391 10.5996 4.26781 10.5996 3.62873 9.96049L3.6194 9.95116C3.74941 11.2365 4.21826 12.172 4.8721 12.809C5.64999 13.5668 6.7442 13.9552 8.00014 13.9552C9.25608 13.9552 10.3503 13.5668 11.1282 12.809C11.9024 12.0547 12.4173 10.8819 12.4173 9.20515C12.4173 8.39432 12.1252 7.52076 11.6619 6.65234L11.0925 7.22165C10.4609 7.85331 9.43673 7.85331 8.80507 7.22165C8.17342 6.59 8.17342 5.56584 8.80507 4.93419C9.34609 4.39317 9.34609 3.51574 8.80511 2.97479C8.69298 2.86267 8.58606 2.75809 8.48588 2.66179Z" fill="currentcolor"/>
</svg>

<svg id="strib-fire" viewBox="0 0 16 16" fill="currentcolor" class="strib-icon strib-fire" xmlns="http://www.w3.org/2000/svg" width="16" height="16">
  <path d="M8.322 1.117 8 1.503zl.007.005.019.016.068.059a19 19 0 0 1 1.105 1.034 2.4 2.4 0 0 1 0 3.395.623.623 0 0 0 .88.879l1.037-1.037a.5.5 0 0 1 .784.092c.689 1.119 1.23 2.392 1.23 3.653 0 1.901-.589 3.362-1.602 4.348C10.842 14.543 9.469 15 8 15s-2.842-.457-3.85-1.439c-1.013-.986-1.602-2.447-1.602-4.348q0-.266.031-.53a.503.503 0 0 1 .856-.298l.877.877a.641.641 0 0 0 .906-.906l-.667-.667a2.26 2.26 0 0 1-.257-2.906c.487-.689 1.189-.947 1.751-1.117l.284-.083a7 7 0 0 0 .472-.146c.214-.079.352-.156.443-.245.059-.058.123-.166.175-.34.051-.171.079-.37.093-.569a5 5 0 0 0-.008-.673l-.002-.04-.002-.009m0 0a.502.502 0 0 1 .822-.444m.167 1.511c-.021.167-.055.34-.105.51-.078.262-.208.55-.436.774-.24.234-.533.372-.803.47-.182.067-.39.126-.581.181l-.229.067c-.526.159-.94.338-1.22.734a1.26 1.26 0 0 0 .148 1.613l.667.667A1.647 1.647 0 1 1 3.6 9.973l-.009-.009c.131 1.293.603 2.235 1.261 2.876.783.763 1.884 1.154 3.148 1.154s2.365-.391 3.148-1.154c.779-.759 1.297-1.939 1.297-3.627 0-.816-.294-1.696-.76-2.569l-.572.573A1.628 1.628 0 1 1 8.81 4.914a1.394 1.394 0 0 0 0-1.971q-.17-.17-.321-.315"/>
</svg>
